X:6960
T:the Jocular Constable
O:england
R:Schottische
M:4/4
C:Andy Hornby
A:Lancaster
N:1986
K:Am
E>^GA>B c>BA>c | B>A^G>F E2-E>e | \
e>^de>f e>=dc>B | A>Bc>d eze2 | \
E^GAB cBAc |B>A^GF E2-E>e | \
e^def e=dcB |1 Az^G2A4 :|2 Az^G2A2-A>e:|
|:f>ef>d A>df>d | e>fe>^c A3E | \
FE^DE =cBA^G | A>EA>B c>de>g |\
f>ef>d A>df>d | e>fe>^c A3E | \
F>E^D>E =cBA^G |1Az^G2A>e :|2 Az^G2A2 (3e^f^g ||
|:a2=g2f2e2 | d2c2B2A2 |\
^G>AB>c B>E^F>^G | A>Bc>d e>e^f>^g | \
a2=g2f2e2 | d2c2B2A2 | \
^G>AB>c B>E^F>^G |1 Az^G2A2 (3e^f^g :|2Az^G2A4 |]
W:Copyright (C) Andy Hornby
